;FLAVOR:RepRap
;TIME:9189
;Filament used: 12.4527m
;Layer height: 0.2
;Generated with Cura_SteamEngine 3.3.1
T0
M190 S60
M104 S205
M109 S205
M82 ;absolute extrusion mode
G28
G1 Z15.0 F10000
G92 E0
G92 E0
G1 F2700 E-3.2
;LAYER_COUNT:25
;LAYER:0
M107
M203 Z30000
G0 F15000 X87.199 Y-95.383 Z0.3
;TYPE:SKIRT
G1 F2700 E0
G1 F1500 X87.345 Y-95.25 E0.01232
G1 X91.468 Y-91.302 E0.36831
G1 X91.614 Y-91.155 E0.38123
G1 X95.911 Y-86.62 E0.77084
G1 X96.044 Y-86.473 E0.7832
G1 X99.783 Y-82.139 E1.14016
G1 X99.914 Y-81.979 E1.15306
G1 X103.781 Y-77.028 E1.54483
G1 X103.901 Y-76.867 E1.55735
G1 X107.239 Y-72.15 E1.91772
G1 X107.356 Y-71.976 E1.9308
G1 X110.746 Y-66.647 E2.32468
G1 X110.849 Y-66.477 E2.33707
G1 X113.684 Y-61.523 E2.69303
G1 X113.784 Y-61.337 E2.7062
G1 X116.67 Y-55.655 E3.10363
G1 X116.757 Y-55.472 E3.11627
G1 X119.109 Y-50.239 E3.47406
G1 X119.188 Y-50.052 E3.48672
G1 X121.411 Y-44.399 E3.86553
G1 X121.487 Y-44.191 E3.87934
G1 X123.565 Y-37.975 E4.28808
G1 X123.625 Y-37.78 E4.3008
G1 X125.19 Y-32.225 E4.66071
G1 X125.243 Y-32.014 E4.67428
G1 X126.696 Y-25.618 E5.08331
G1 X126.735 Y-25.426 E5.09553
G1 X127.625 Y-20.457 E5.41034
G1 X127.655 Y-20.266 E5.4224
G1 X128.474 Y-14.077 E5.81173
G1 X128.498 Y-13.857 E5.82553
G1 X129.073 Y-6.652 E6.27628
G1 X129.085 Y-6.408 E6.29152
G1 X129.236 Y0.423 E6.71762
G1 X129.235 Y0.632 E6.73066
G1 X129.071 Y6.682 E7.10809
G1 X129.06 Y6.904 E7.12195
G1 X128.522 Y13.665 E7.54492
G1 X128.5 Y13.872 E7.5579
G1 X127.745 Y19.725 E7.92593
G1 X127.711 Y19.943 E7.93969
G1 X126.519 Y26.486 E8.35445
G1 X126.475 Y26.699 E8.36801
G1 X125.042 Y32.777 E8.75744
G1 X124.991 Y32.972 E8.77001
G1 X123.409 Y38.497 E9.12842
G1 X123.344 Y38.703 E9.14189
G1 X121.241 Y44.849 E9.54698
G1 X121.174 Y45.033 E9.5592
G1 X119.391 Y49.553 E9.86221
G1 X119.319 Y49.722 E9.87367
G1 X116.841 Y55.287 E10.25357
G1 X116.748 Y55.483 E10.2671
G1 X113.604 Y61.67 E10.6999
G1 X113.491 Y61.877 E10.7146
G1 X110.301 Y67.377 E11.11112
G1 X110.198 Y67.547 E11.12351
G1 X107.084 Y72.38 E11.48206
G1 X106.967 Y72.552 E11.49503
G1 X103.328 Y77.635 E11.88488
G1 X103.208 Y77.794 E11.8973
G1 X99.654 Y82.296 E12.255
G1 X99.52 Y82.457 E12.26806
G1 X95.374 Y87.209 E12.66135
G1 X95.24 Y87.356 E12.67375
G1 X91.277 Y91.491 E13.03093
G1 X91.136 Y91.631 E13.04332
G1 X86.804 Y95.746 E13.41594
G1 X86.648 Y95.888 E13.42909
G1 X81.843 Y100.019 E13.82426
G1 X81.69 Y100.144 E13.83658
G1 X77.214 Y103.644 E14.19092
G1 X77.045 Y103.769 E14.20403
G1 X71.878 Y107.413 E14.59834
G1 X71.715 Y107.523 E14.6106
G1 X66.877 Y110.609 E14.96846
G1 X66.695 Y110.718 E14.98169
G1 X61.203 Y113.848 E15.37591
G1 X61.027 Y113.943 E15.38838
G1 X55.928 Y116.539 E15.74521
G1 X55.738 Y116.63 E15.75835
G1 X49.922 Y119.236 E16.15579
G1 X49.727 Y119.318 E16.16898
G1 X44.044 Y121.533 E16.54936
G1 X43.853 Y121.602 E16.56203
G1 X38.318 Y123.46 E16.92613
G1 X38.112 Y123.523 E16.93957
G1 X31.854 Y125.276 E17.34485
G1 X31.646 Y125.329 E17.35824
G1 X25.587 Y126.7 E17.74565
G1 X25.387 Y126.74 E17.75837
G1 X19.625 Y127.756 E18.12325
G1 X19.409 Y127.789 E18.13687
G1 X12.733 Y128.615 E18.55638
G1 X12.524 Y128.635 E18.56947
G1 X6.546 Y129.076 E18.94329
G1 X6.325 Y129.087 E18.95709
G1 X-.489 Y129.235 E19.38213
G1 X-.698 Y129.234 E19.39516
G1 X-6.735 Y129.068 E19.77179
G1 X-6.956 Y129.057 E19.78559
G1 X-13.719 Y128.518 E20.20869
G1 X-13.926 Y128.496 E20.22167
G1 X-19.724 Y127.747 E20.58625
G1 X-19.938 Y127.714 E20.59976
G1 X-26.448 Y126.532 E21.01238
G1 X-26.664 Y126.487 E21.02613
G1 X-32.782 Y125.045 E21.41812
G1 X-32.977 Y124.994 E21.43069
G1 X-38.526 Y123.405 E21.79065
G1 X-38.73 Y123.341 E21.80399
G1 X-44.818 Y121.261 E22.2052
G1 X-45.012 Y121.189 E22.2181
G1 X-50.412 Y119.046 E22.58041
G1 X-50.608 Y118.963 E22.59369
G1 X-56.414 Y116.315 E22.99164
G1 X-56.596 Y116.226 E23.00428
G1 X-61.722 Y113.586 E23.36386
G1 X-61.905 Y113.486 E23.37686
G1 X-67.323 Y110.35 E23.76726
G1 X-67.496 Y110.245 E23.77988
G1 X-72.376 Y107.101 E24.1419
G1 X-72.548 Y106.984 E24.15487
G1 X-77.632 Y103.344 E24.54481
G1 X-77.792 Y103.223 E24.55732
G1 X-82.31 Y99.655 E24.91634
G1 X-82.469 Y99.523 E24.92923
G1 X-87.22 Y95.38 E25.32235
G1 X-87.367 Y95.246 E25.33475
G1 X-91.481 Y91.306 E25.68999
G1 X-91.627 Y91.159 E25.70291
G1 X-95.95 Y86.594 E26.09499
G1 X-96.084 Y86.446 E26.10744
G1 X-99.805 Y82.128 E26.46292
G1 X-99.936 Y81.968 E26.47581
G1 X-103.828 Y76.98 E26.87037
G1 X-103.947 Y76.82 E26.8828
G1 X-107.241 Y72.163 E27.23853
G1 X-107.356 Y71.992 E27.25138
G1 X-110.724 Y66.702 E27.64247
G1 X-110.828 Y66.53 E27.65501
G1 X-113.686 Y61.535 E28.01389
G1 X-113.786 Y61.35 E28.02701
G1 X-116.656 Y55.703 E28.42204
G1 X-116.744 Y55.518 E28.43482
G1 X-119.131 Y50.201 E28.79828
G1 X-119.21 Y50.013 E28.811
G1 X-121.422 Y44.379 E29.18846
G1 X-121.497 Y44.172 E29.20219
G1 X-123.572 Y37.958 E29.61075
G1 X-123.635 Y37.754 E29.62406
G1 X-125.286 Y31.836 E30.00722
G1 X-125.333 Y31.649 E30.01924
G1 X-126.437 Y26.863 E30.32555
G1 X-126.475 Y26.68 E30.33721
G1 X-127.617 Y20.496 E30.72938
G1 X-127.652 Y20.273 E30.74345
G1 X-128.579 Y13.152 E31.19129
G1 X-128.604 Y12.91 E31.20646
G1 X-129.09 Y6.199 E31.62607
G1 X-129.1 Y5.991 E31.63906
G1 X-129.241 Y-0.053 E32.01608
G1 X-129.24 Y-.276 E32.02999
G1 X-129.039 Y-7.164 E32.45973
G1 X-129.028 Y-7.37 E32.47259
G1 X-128.569 Y-13.255 E32.84071
G1 X-128.547 Y-13.473 E32.85437
G1 X-127.693 Y-20.046 E33.26773
G1 X-127.658 Y-20.264 E33.2815
G1 X-126.514 Y-26.509 E33.67743
G1 X-126.471 Y-26.714 E33.6905
G1 X-125.074 Y-32.664 E34.07165
G1 X-125.023 Y-32.861 E34.08434
G1 X-123.411 Y-38.499 E34.45003
G1 X-123.347 Y-38.706 E34.46354
G1 X-121.258 Y-44.817 E34.86629
G1 X-121.186 Y-45.01 E34.87914
G1 X-119.041 Y-50.415 E35.24178
G1 X-118.958 Y-50.611 E35.25505
G1 X-116.296 Y-56.445 E35.65496
G1 X-116.208 Y-56.626 E35.66751
G1 X-113.595 Y-61.702 E36.02355
G1 X-113.494 Y-61.886 E36.03664
G1 X-110.334 Y-67.344 E36.42994
G1 X-110.229 Y-67.516 E36.44251
G1 X-107.112 Y-72.355 E36.80147
G1 X-106.995 Y-72.528 E36.8145
G1 X-103.338 Y-77.637 E37.20632
G1 X-103.218 Y-77.796 E37.21874
G1 X-99.666 Y-82.297 E37.57631
G1 X-99.534 Y-82.456 E37.5892
G1 X-95.402 Y-87.197 E37.9814
G1 X-95.268 Y-87.344 E37.9938
G1 X-91.313 Y-91.474 E38.35041
G1 X-91.166 Y-91.621 E38.36337
G1 X-86.6 Y-95.946 E38.75558
G1 X-86.452 Y-96.079 E38.76799
G1 X-82.134 Y-99.802 E39.12355
G1 X-81.973 Y-99.934 E39.13653
G1 X-76.978 Y-103.831 E39.53162
G1 X-76.818 Y-103.95 E39.54406
G1 X-72.139 Y-107.259 E39.90145
G1 X-71.968 Y-107.374 E39.9143
G1 X-66.723 Y-110.715 E40.30211
G1 X-66.55 Y-110.819 E40.3147
G1 X-61.55 Y-113.679 E40.67392
G1 X-61.363 Y-113.78 E40.68718
G1 X-55.584 Y-116.712 E41.0913
G1 X-55.403 Y-116.799 E41.10383
G1 X-50.222 Y-119.127 E41.45805
G1 X-50.033 Y-119.206 E41.47082
G1 X-44.364 Y-121.431 E41.85061
G1 X-44.166 Y-121.503 E41.86375
G1 X-38.37 Y-123.453 E42.24511
G1 X-38.161 Y-123.518 E42.25876
G1 X-31.85 Y-125.285 E42.66747
G1 X-31.642 Y-125.337 E42.68084
G1 X-25.607 Y-126.702 E43.06671
G1 X-25.408 Y-126.742 E43.07936
G1 X-19.643 Y-127.76 E43.44445
G1 X-19.424 Y-127.793 E43.45826
G1 X-12.738 Y-128.617 E43.87837
G1 X-12.531 Y-128.637 E43.89134
G1 X-6.582 Y-129.076 E44.26335
G1 X-6.361 Y-129.087 E44.27714
G1 X0.455 Y-129.235 E44.70231
G1 X0.664 Y-129.234 E44.71534
G1 X6.681 Y-129.069 E45.09072
G1 X6.9 Y-129.058 E45.1044
G1 X13.634 Y-128.524 E45.52566
G1 X13.842 Y-128.502 E45.53871
G1 X19.743 Y-127.74 E45.90977
G1 X19.962 Y-127.706 E45.92359
G1 X26.501 Y-126.512 E46.33812
G1 X26.711 Y-126.468 E46.3515
G1 X32.67 Y-125.067 E46.73325
G1 X32.866 Y-125.016 E46.74588
G1 X38.479 Y-123.41 E47.10997
G1 X38.684 Y-123.346 E47.12336
G1 X44.783 Y-121.262 E47.52531
G1 X44.976 Y-121.19 E47.53815
G1 X50.4 Y-119.038 E47.90206
G1 X50.596 Y-118.955 E47.91533
G1 X56.35 Y-116.332 E48.30969
G1 X56.532 Y-116.244 E48.3223
G1 X61.72 Y-113.573 E48.6862
G1 X61.906 Y-113.471 E48.69943
G1 X67.371 Y-110.304 E49.09333
G1 X67.543 Y-110.199 E49.1059
G1 X72.385 Y-107.078 E49.46515
G1 X72.556 Y-106.962 E49.47804
G1 X77.632 Y-103.328 E49.86735
G1 X77.791 Y-103.208 E49.87978
G1 X82.301 Y-99.648 E50.2381
G1 X82.461 Y-99.515 E50.25107
G1 X87.199 Y-95.383 E50.64313
G0 F15000 X86.871 Y-95.006
G1 F1500 X87 Y-94.889 E50.65399
G1 X91.123 Y-90.941 E51.00998
G1 X91.251 Y-90.811 E51.02135
G1 X95.548 Y-86.276 E51.41096
G1 X95.665 Y-86.147 E51.42182
G1 X99.404 Y-81.813 E51.77878
G1 X99.52 Y-81.671 E51.79022
G1 X103.387 Y-76.72 E52.18199
G1 X103.493 Y-76.578 E52.19305
G1 X106.831 Y-71.861 E52.55342
G1 X106.934 Y-71.708 E52.56492
G1 X110.324 Y-66.379 E52.95879
G1 X110.415 Y-66.229 E52.96973
G1 X113.25 Y-61.275 E53.32569
G1 X113.338 Y-61.11 E53.33735
G1 X116.224 Y-55.428 E53.73479
G1 X116.301 Y-55.267 E53.74592
G1 X118.653 Y-50.034 E54.10371
G1 X118.723 Y-49.869 E54.11488
G1 X120.946 Y-44.216 E54.4937
G1 X121.013 Y-44.033 E54.50585
G1 X123.091 Y-37.817 E54.91459
G1 X123.143 Y-37.645 E54.92579
G1 X124.708 Y-32.09 E55.2857
G1 X124.756 Y-31.904 E55.29768
G1 X126.209 Y-25.508 E55.70672
G1 X126.243 Y-25.338 E55.71753
G1 X127.133 Y-20.369 E56.03234
G1 X127.16 Y-20.2 E56.04301
G1 X127.979 Y-14.011 E56.43234
G1 X127.999 Y-13.817 E56.4445
G1 X128.574 Y-6.612 E56.89526
G1 X128.585 Y-6.397 E56.90868
G1 X128.736 Y0.434 E57.33479
G1 X128.736 Y0.619 E57.34632
G1 X128.572 Y6.669 E57.72376
G1 X128.561 Y6.864 E57.73594
G1 X128.023 Y13.625 E58.1589
G1 X128.004 Y13.808 E58.17038
G1 X127.249 Y19.661 E58.53841
G1 X127.219 Y19.853 E58.55053
G1 X126.027 Y26.396 E58.96529
G1 X125.988 Y26.585 E58.97732
G1 X124.555 Y32.663 E59.36675
G1 X124.51 Y32.834 E59.37778
G1 X122.928 Y38.359 E59.73618
G1 X122.871 Y38.541 E59.74808
G1 X120.768 Y44.687 E60.15317
G1 X120.708 Y44.849 E60.16395
G1 X118.925 Y49.369 E60.46697
G1 X118.863 Y49.518 E60.47703
G1 X116.385 Y55.083 E60.85693
G1 X116.302 Y55.257 E60.86895
G1 X113.158 Y61.444 E61.30175
G1 X113.059 Y61.626 E61.31467
G1 X109.869 Y67.126 E61.71118
G1 X109.777 Y67.276 E61.72216
G1 X106.663 Y72.109 E62.0807
G1 X106.56 Y72.261 E62.09215
G1 X102.921 Y77.344 E62.482
G1 X102.815 Y77.485 E62.493
G1 X99.261 Y81.987 E62.8507
G1 X99.144 Y82.128 E62.86213
G1 X94.998 Y86.88 E63.25541
G1 X94.879 Y87.01 E63.2664
G1 X90.916 Y91.145 E63.62358
G1 X90.792 Y91.269 E63.63452
G1 X86.46 Y95.384 E64.00713
G1 X86.322 Y95.509 E64.01874
G1 X81.517 Y99.64 E64.41391
G1 X81.382 Y99.75 E64.42477
G1 X76.906 Y103.25 E64.77911
G1 X76.757 Y103.361 E64.7907
G1 X71.59 Y107.005 E65.185
G1 X71.446 Y107.102 E65.19583
G1 X66.608 Y110.188 E65.55369
G1 X66.448 Y110.284 E65.56533
G1 X60.956 Y113.414 E65.95954
G1 X60.8 Y113.498 E65.97059
G1 X55.701 Y116.094 E66.32742
G1 X55.533 Y116.174 E66.33903
G1 X49.717 Y118.78 E66.73647
G1 X49.546 Y118.852 E66.74804
G1 X43.863 Y121.067 E67.12842
G1 X43.694 Y121.128 E67.13962
G1 X38.159 Y122.986 E67.50373
G1 X37.978 Y123.042 E67.51555
G1 X31.72 Y124.795 E67.92084
G1 X31.536 Y124.842 E67.93268
G1 X25.477 Y126.213 E68.32009
G1 X25.3 Y126.248 E68.33134
G1 X19.538 Y127.264 E68.69622
G1 X19.347 Y127.293 E68.70826
G1 X12.671 Y128.119 E69.12777
G1 X12.487 Y128.137 E69.1393
G1 X6.509 Y128.578 E69.51312
G1 X6.314 Y128.587 E69.52529
G1 X-.5 Y128.735 E69.95033
G1 X-.684 Y128.735 E69.96181
G1 X-6.721 Y128.569 E70.33843
G1 X-6.916 Y128.558 E70.35061
G1 X-13.679 Y128.019 E70.77371
G1 X-13.861 Y128 E70.78512
G1 X-19.659 Y127.251 E71.14971
G1 X-19.849 Y127.222 E71.16169
G1 X-26.359 Y126.04 E71.57431
G1 X-26.549 Y126 E71.58642
G1 X-32.667 Y124.558 E71.97841
G1 X-32.839 Y124.513 E71.9895
G1 X-38.388 Y122.924 E72.34946
G1 X-38.568 Y122.868 E72.36121
G1 X-44.656 Y120.788 E72.76243
G1 X-44.827 Y120.725 E72.77379
G1 X-50.227 Y118.582 E73.1361
G1 X-50.4 Y118.508 E73.14783
G1 X-56.206 Y115.86 E73.54579
G1 X-56.367 Y115.782 E73.55695
G1 X-61.493 Y113.142 E73.91652
G1 X-61.655 Y113.054 E73.92802
G1 X-67.073 Y109.918 E74.31842
G1 X-67.225 Y109.824 E74.32956
G1 X-72.105 Y106.68 E74.69159
G1 X-72.257 Y106.577 E74.70304
G1 X-77.341 Y102.937 E75.09297
G1 X-77.482 Y102.831 E75.10398
G1 X-82 Y99.263 E75.463
G1 X-82.141 Y99.146 E75.47442
G1 X-86.892 Y95.003 E75.86754
G1 X-87.021 Y94.885 E75.87844
G1 X-91.135 Y90.945 E76.23368
G1 X-91.264 Y90.815 E76.2451
G1 X-95.587 Y86.25 E76.63718
G1 X-95.705 Y86.12 E76.64813
G1 X-99.426 Y81.802 E77.00361
G1 X-99.541 Y81.661 E77.01495
G1 X-103.433 Y76.673 E77.40951
G1 X-103.539 Y76.532 E77.42051
G1 X-106.833 Y71.875 E77.77624
G1 X-106.934 Y71.723 E77.78762
G1 X-110.302 Y66.433 E78.17871
G1 X-110.394 Y66.281 E78.18979
G1 X-113.252 Y61.286 E78.54867
G1 X-113.34 Y61.123 E78.56023
G1 X-116.21 Y55.476 E78.95526
G1 X-116.288 Y55.313 E78.96653
G1 X-118.675 Y49.996 E79.32999
G1 X-118.745 Y49.83 E79.34123
G1 X-120.957 Y44.196 E79.71869
G1 X-121.023 Y44.014 E79.73076
G1 X-123.098 Y37.8 E80.13932
G1 X-123.153 Y37.62 E80.15106
G1 X-124.804 Y31.702 E80.53421
G1 X-124.846 Y31.537 E80.54483
G1 X-125.95 Y26.751 E80.85114
G1 X-125.984 Y26.589 E80.86146
G1 X-127.126 Y20.405 E81.25363
G1 X-127.157 Y20.208 E81.26607
G1 X-128.084 Y13.087 E81.7139
G1 X-128.105 Y12.874 E81.72725
G1 X-128.591 Y6.163 E82.14686
G1 X-128.6 Y5.979 E82.15835
G1 X-128.741 Y-0.065 E82.53537
G1 X-128.74 Y-.261 E82.5476
G1 X-128.539 Y-7.149 E82.97733
G1 X-128.53 Y-7.332 E82.98876
G1 X-128.071 Y-13.217 E83.35688
G1 X-128.051 Y-13.408 E83.36886
G1 X-127.197 Y-19.981 E83.78221
G1 X-127.167 Y-20.174 E83.79439
G1 X-126.023 Y-26.419 E84.19033
G1 X-125.985 Y-26.6 E84.20186
G1 X-124.588 Y-32.55 E84.58301
G1 X-124.543 Y-32.724 E84.59422
G1 X-122.931 Y-38.362 E84.95991
G1 X-122.873 Y-38.544 E84.97182
G1 X-120.784 Y-44.655 E85.37457
G1 X-120.722 Y-44.825 E85.38586
G1 X-118.577 Y-50.23 E85.7485
G1 X-118.503 Y-50.404 E85.76029
G1 X-115.841 Y-56.238 E86.1602
G1 X-115.763 Y-56.397 E86.17125
G1 X-113.15 Y-61.473 E86.52728
G1 X-113.061 Y-61.636 E86.53886
G1 X-109.901 Y-67.094 E86.93217
G1 X-109.809 Y-67.246 E86.94325
G1 X-106.692 Y-72.085 E87.30221
G1 X-106.588 Y-72.237 E87.3137
G1 X-102.931 Y-77.346 E87.70552
G1 X-102.826 Y-77.486 E87.71643
G1 X-99.274 Y-81.987 E88.074
G1 X-99.157 Y-82.128 E88.08543
G1 X-95.025 Y-86.869 E88.47762
G1 X-94.906 Y-86.999 E88.48861
G1 X-90.951 Y-91.129 E88.84522
G1 X-90.822 Y-91.258 E88.8566
G1 X-86.256 Y-95.583 E89.24881
G1 X-86.126 Y-95.7 E89.25972
G1 X-81.808 Y-99.423 E89.61527
G1 X-81.666 Y-99.54 E89.62675
G1 X-76.671 Y-103.437 E90.02184
G1 X-76.529 Y-103.542 E90.03285
G1 X-71.85 Y-106.851 E90.39024
G1 X-71.7 Y-106.952 E90.40152
G1 X-66.455 Y-110.293 E90.78933
G1 X-66.302 Y-110.385 E90.80047
G1 X-61.302 Y-113.245 E91.15969
G1 X-61.137 Y-113.334 E91.17138
G1 X-55.358 Y-116.266 E91.57551
G1 X-55.198 Y-116.343 E91.58658
G1 X-50.017 Y-118.671 E91.9408
G1 X-49.85 Y-118.741 E91.95209
G1 X-44.181 Y-120.966 E92.33188
G1 X-44.007 Y-121.029 E92.34342
G1 X-38.211 Y-122.979 E92.72478
G1 X-38.026 Y-123.036 E92.73686
G1 X-31.715 Y-124.803 E93.14556
G1 X-31.531 Y-124.85 E93.15741
G1 X-25.496 Y-126.215 E93.54327
G1 X-25.321 Y-126.25 E93.5544
G1 X-19.556 Y-127.268 E93.91949
G1 X-19.363 Y-127.297 E93.93166
G1 X-12.677 Y-128.121 E94.35177
G1 X-12.494 Y-128.139 E94.36324
G1 X-6.545 Y-128.578 E94.73524
G1 X-6.35 Y-128.587 E94.74742
G1 X0.466 Y-128.735 E95.17258
G1 X0.65 Y-128.735 E95.18405
G1 X6.667 Y-128.57 E95.55943
G1 X6.86 Y-128.559 E95.57149
G1 X13.594 Y-128.025 E95.99276
G1 X13.778 Y-128.006 E96.00429
G1 X19.679 Y-127.244 E96.37535
G1 X19.873 Y-127.214 E96.38759
G1 X26.412 Y-126.02 E96.80213
G1 X26.596 Y-125.981 E96.81386
G1 X32.555 Y-124.58 E97.19561
G1 X32.729 Y-124.535 E97.20682
G1 X38.342 Y-122.929 E97.5709
G1 X38.523 Y-122.873 E97.58272
G1 X44.622 Y-120.789 E97.98466
G1 X44.792 Y-120.726 E97.99597
G1 X50.216 Y-118.574 E98.35987
G1 X50.388 Y-118.5 E98.37155
G1 X56.142 Y-115.877 E98.76591
G1 X56.304 Y-115.799 E98.77712
G1 X61.492 Y-113.128 E99.14102
G1 X61.655 Y-113.039 E99.15261
G1 X67.12 Y-109.872 E99.54651
G1 X67.272 Y-109.779 E99.55762
G1 X72.114 Y-106.658 E99.91687
G1 X72.265 Y-106.555 E99.92827
G1 X77.341 Y-102.921 E100.31759
G1 X77.481 Y-102.815 E100.32854
G1 X81.991 Y-99.255 E100.68686
G1 X82.133 Y-99.138 E100.69833
G1 X86.871 Y-95.006 E101.09039
G0 F15000 X86.542 Y-94.629
G1 F1500 X86.654 Y-94.527 E101.09983
G1 X90.777 Y-90.579 E101.45583
G1 X90.888 Y-90.467 E101.46566
