;FLAVOR:RepRap
;TIME:371
;Filament used: 0.668644m
;Layer height: 0.25
;MINX:-139.75
;MINY:-139.744
;MINZ:0.3
;MAXX:139.75
;MAXY:139.744
;MAXZ:1.3
;Generated with Cura_SteamEngine 4.6.2
T0
M190 S60
M104 S205
M109 S205
M82 ;absolute extrusion mode
M203 Z14000
G28 ;Home
G1 X0 Y-130 Z0.3 F8000 ;Move the platform down 15mm
G1 Z5
G1 F200 E3
G92 E0
M82 ;absolute extrusion mode
G91
G1 Z1 F10000
G90
G1 X0 Y-130 F14000
T0 P0
G92 E0
G1 E145 F5000
G92 E0
G1 E15 F1000
G92 E0
M18 E1
M83 ;relative extrusion mode
M83 ;relative extrusion mode
G1 F3600 E-6
;LAYER_COUNT:1
;LAYER:0
M107
G1 F3600 Z1.3
;MESH:Calibration Ring.STL
G0 F8000 X-122.012 Y-58.36 Z1.3
;TYPE:WALL-INNER
G1 F3600 Z0.3
G1 F3600 E6
G1 F1800 X-124.096 Y-53.783 E0.31363
G1 X-126.01 Y-49.135 E0.31348
G1 X-127.748 Y-44.415 E0.31367
G1 X-129.311 Y-39.637 E0.31351
G1 X-130.696 Y-34.803 E0.31359
G1 X-131.9 Y-29.921 E0.31358
G1 X-132.919 Y-24.996 E0.31364
G1 X-133.758 Y-20.039 E0.31353
G1 X-134.409 Y-15.055 E0.31346
G1 X-134.877 Y-10.048 E0.31361
G1 X-135.157 Y-5.028 E0.31355
G1 X-135.25 Y0.00 E0.31361
G1 X-135.157 Y5.028 E0.31361
G1 X-134.877 Y10.048 E0.31355
G1 X-134.409 Y15.055 E0.31361
G1 X-133.758 Y20.039 E0.31346
G1 X-132.919 Y24.996 E0.31353
G1 X-131.9 Y29.921 E0.31364
G1 X-130.696 Y34.803 E0.31358
G1 X-129.311 Y39.637 E0.31359
G1 X-127.748 Y44.415 E0.31351
G1 X-126.01 Y49.135 E0.31367
G1 X-124.096 Y53.783 E0.31348
G1 X-122.012 Y58.36 E0.31363
G1 X-119.758 Y62.853 E0.31348
G1 X-117.339 Y67.262 E0.31362
G1 X-114.757 Y71.577 E0.31359
G1 X-112.018 Y75.792 E0.31348
G1 X-109.123 Y79.904 E0.31361
G1 X-106.077 Y83.905 E0.31359
G1 X-102.885 Y87.791 E0.31362
G1 X-99.551 Y91.552 E0.31344
G1 X-96.08 Y95.191 E0.31362
G1 X-92.475 Y98.696 E0.31356
G1 X-88.742 Y102.065 E0.31359
G1 X-84.888 Y105.293 E0.31351
G1 X-80.915 Y108.376 E0.31361
G1 X-76.831 Y111.31 E0.3136
G1 X-72.641 Y114.088 E0.31351
G1 X-68.35 Y116.71 E0.3136
G1 X-63.964 Y119.169 E0.31358
G1 X-59.491 Y121.464 E0.31352
G1 X-54.935 Y123.591 E0.31356
G1 X-50.303 Y125.547 E0.31356
G1 X-45.602 Y127.331 E0.31357
G1 X-40.838 Y128.938 E0.31354
G1 X-36.016 Y130.367 E0.31364
G1 X-31.146 Y131.616 E0.31354
G1 X-26.231 Y132.683 E0.31365
G1 X-21.282 Y133.566 E0.31351
G1 X-16.312 Y134.261 E0.31296
G1 X-16.302 Y134.263 E0.00064
G1 X-11.301 Y134.776 E0.31351
G1 X-6.283 Y135.105 E0.31361
G1 X-1.257 Y135.244 E0.31356
G1 X3.771 Y135.198 E0.31357
G1 X8.794 Y134.964 E0.31359
G1 X13.804 Y134.543 E0.31354
G1 X18.796 Y133.938 E0.31359
G1 X23.761 Y133.146 E0.31355
G1 X28.693 Y132.172 E0.31351
G1 X33.586 Y131.013 E0.31358
G1 X38.433 Y129.674 E0.31359
G1 X43.227 Y128.157 E0.31358
G1 X47.96 Y126.462 E0.31352
G1 X52.628 Y124.591 E0.31362
G1 X57.224 Y122.549 E0.31364
G1 X61.737 Y120.337 E0.31343
G1 X66.169 Y117.959 E0.31366
G1 X70.507 Y115.418 E0.31352
G1 X74.748 Y112.718 E0.31353
G1 X78.887 Y109.861 E0.31364
G1 X82.916 Y106.854 E0.31352
G1 X86.83 Y103.697 E0.31359
G1 X90.625 Y100.398 E0.31359
G1 X94.294 Y96.959 E0.31361
G1 X97.833 Y93.388 E0.31353
G1 X101.235 Y89.688 E0.31345
G1 X104.499 Y85.862 E0.31363
G1 X107.619 Y81.919 E0.31357
G1 X110.59 Y77.862 E0.31359
G1 X113.407 Y73.698 E0.31352
G1 X116.069 Y69.432 E0.31359
G1 X118.568 Y65.07 E0.31351
G1 X120.906 Y60.617 E0.31365
G1 X123.076 Y56.081 E0.31358
G1 X125.074 Y51.467 E0.31356
G1 X126.901 Y46.782 E0.3136
G1 X128.552 Y42.033 E0.31355
G1 X130.026 Y37.227 E0.31349
G1 X131.321 Y32.368 E0.3136
G1 X132.433 Y27.465 E0.31353
G1 X133.362 Y22.522 E0.31366
G1 X134.107 Y17.55 E0.31353
G1 X134.667 Y12.552 E0.31364
G1 X135.04 Y7.539 E0.31349
G1 X135.227 Y2.521 E0.31315
G1 X135.25 Y0.00 E0.15722
G1 X135.227 Y-2.521 E0.15722
G1 X135.04 Y-7.539 E0.31315
G1 X134.667 Y-12.552 E0.31349
G1 X134.107 Y-17.55 E0.31364
G1 X133.362 Y-22.522 E0.31353
G1 X132.433 Y-27.465 E0.31366
G1 X131.321 Y-32.368 E0.31353
G1 X130.026 Y-37.227 E0.3136
G1 X128.552 Y-42.033 E0.31349
G1 X126.901 Y-46.782 E0.31355
G1 X125.074 Y-51.467 E0.3136
G1 X123.076 Y-56.081 E0.31356
G1 X120.906 Y-60.617 E0.31358
G1 X118.568 Y-65.07 E0.31365
G1 X116.069 Y-69.432 E0.31351
G1 X113.407 Y-73.698 E0.31359
G1 X110.59 Y-77.862 E0.31352
G1 X107.619 Y-81.919 E0.31359
G1 X104.499 Y-85.862 E0.31357
G1 X101.235 Y-89.688 E0.31363
G1 X97.833 Y-93.388 E0.31345
G1 X94.294 Y-96.959 E0.31353
G1 X90.625 Y-100.398 E0.31361
G1 X86.83 Y-103.697 E0.31359
G1 X82.916 Y-106.854 E0.31359
G1 X78.887 Y-109.861 E0.31352
G1 X74.748 Y-112.718 E0.31364
G1 X70.507 Y-115.418 E0.31353
G1 X66.169 Y-117.959 E0.31352
G1 X61.737 Y-120.337 E0.31366
G1 X57.224 Y-122.549 E0.31343
G1 X52.628 Y-124.591 E0.31364
G1 X47.96 Y-126.462 E0.31362
G1 X43.227 Y-128.157 E0.31352
G1 X38.433 Y-129.674 E0.31358
G1 X33.586 Y-131.013 E0.31359
G1 X28.693 Y-132.172 E0.31358
G1 X23.761 Y-133.146 E0.31351
G1 X18.796 Y-133.938 E0.31355
G1 X13.814 Y-134.541 E0.31296
G1 X13.804 Y-134.543 E0.00064
G1 X8.794 Y-134.964 E0.31354
G1 X3.771 Y-135.198 E0.31359
G1 X-1.257 Y-135.244 E0.31357
G1 X-6.283 Y-135.105 E0.31356
G1 X-11.301 Y-134.776 E0.31361
G1 X-16.302 Y-134.263 E0.31351
G1 X-21.282 Y-133.566 E0.31359
G1 X-26.231 Y-132.683 E0.31351
G1 X-31.146 Y-131.616 E0.31365
G1 X-36.016 Y-130.367 E0.31354
G1 X-40.838 Y-128.938 E0.31364
G1 X-45.602 Y-127.331 E0.31354
G1 X-50.303 Y-125.547 E0.31357
G1 X-54.935 Y-123.591 E0.31356
G1 X-59.491 Y-121.464 E0.31356
G1 X-63.964 Y-119.169 E0.31352
G1 X-68.35 Y-116.71 E0.31358
G1 X-72.641 Y-114.088 E0.3136
G1 X-76.831 Y-111.31 E0.31351
G1 X-80.915 Y-108.376 E0.3136
G1 X-84.888 Y-105.293 E0.31361
G1 X-88.742 Y-102.065 E0.31351
G1 X-92.475 Y-98.696 E0.31359
G1 X-96.08 Y-95.191 E0.31356
G1 X-99.551 Y-91.552 E0.31362
G1 X-102.885 Y-87.791 E0.31344
G1 X-106.077 Y-83.905 E0.31362
G1 X-109.123 Y-79.904 E0.31359
G1 X-112.018 Y-75.792 E0.31361
G1 X-114.757 Y-71.577 E0.31348
G1 X-117.339 Y-67.262 E0.31359
G1 X-119.758 Y-62.853 E0.31362
G1 X-122.012 Y-58.36 E0.31348
G0 F8000 X-121.561 Y-58.144
G1 F1800 X-123.637 Y-53.584 E0.31246
G1 X-125.544 Y-48.953 E0.31233
G1 X-127.276 Y-44.251 E0.31249
G1 X-128.833 Y-39.49 E0.31238
G1 X-130.213 Y-34.674 E0.31243
G1 X-131.412 Y-29.81 E0.31241
G1 X-132.428 Y-24.904 E0.31244
G1 X-133.263 Y-19.965 E0.31238
G1 X-133.912 Y-14.999 E0.31233
G1 X-134.378 Y-10.011 E0.31242
G1 X-134.657 Y-5.009 E0.31242
G1 X-134.75 Y0.00 E0.31243
G1 X-134.657 Y5.009 E0.31243
G1 X-134.378 Y10.011 E0.31242
G1 X-133.912 Y14.999 E0.31242
G1 X-133.263 Y19.965 E0.31233
G1 X-132.428 Y24.904 E0.31238
G1 X-131.412 Y29.81 E0.31244
G1 X-130.213 Y34.674 E0.31241
G1 X-128.833 Y39.49 E0.31243
G1 X-127.276 Y44.251 E0.31238
G1 X-125.544 Y48.953 E0.31249
G1 X-123.637 Y53.584 E0.31233
G1 X-121.561 Y58.144 E0.31246
G1 X-119.315 Y62.621 E0.31236
G1 X-116.905 Y67.013 E0.31242
G1 X-114.333 Y71.312 E0.31242
G1 X-111.604 Y75.512 E0.31236
G1 X-108.72 Y79.609 E0.31245
G1 X-105.685 Y83.595 E0.31243
G1 X-102.505 Y87.466 E0.31242
G1 X-99.183 Y91.214 E0.31233
G1 X-95.725 Y94.839 E0.31243
G1 X-92.133 Y98.331 E0.31242
G1 X-88.414 Y101.688 E0.31244
G1 X-84.574 Y104.904 E0.31236
G1 X-80.616 Y107.975 E0.31242
G1 X-76.547 Y110.898 E0.31244
G1 X-72.372 Y113.666 E0.31239
G1 X-68.097 Y116.278 E0.31243
G1 X-63.728 Y118.728 E0.31238
G1 X-59.271 Y121.015 E0.31241
G1 X-54.732 Y123.134 E0.31239
G1 X-50.117 Y125.083 E0.31242
G1 X-45.433 Y126.86 E0.31242
G1 X-40.687 Y128.461 E0.31236
G1 X-35.883 Y129.885 E0.31248
G1 X-31.031 Y131.129 E0.31237
G1 X-26.134 Y132.192 E0.3125
G1 X-21.203 Y133.072 E0.31237
G1 X-16.242 Y133.767 E0.3124
G1 X-11.259 Y134.278 E0.31238
G1 X-6.26 Y134.605 E0.31242
G1 X-1.252 Y134.744 E0.31243
G1 X3.757 Y134.698 E0.31239
G1 X8.761 Y134.465 E0.3124
G1 X13.753 Y134.046 E0.31241
G1 X18.727 Y133.443 E0.31246
G1 X23.673 Y132.654 E0.31235
G1 X28.587 Y131.683 E0.31238
G1 X33.462 Y130.529 E0.31242
G1 X38.291 Y129.195 E0.31243
G1 X43.067 Y127.683 E0.31241
G1 X47.783 Y125.994 E0.3124
G1 X52.433 Y124.13 E0.31242
G1 X57.012 Y122.096 E0.31246
G1 X61.509 Y119.892 E0.31232
G1 X65.924 Y117.523 E0.31246
G1 X70.246 Y114.991 E0.31238
G1 X74.472 Y112.301 E0.31241
G1 X78.595 Y109.455 E0.31243
G1 X82.609 Y106.459 E0.31236
G1 X86.509 Y103.314 E0.31244
G1 X90.29 Y100.027 E0.31244
G1 X93.945 Y96.601 E0.31241
G1 X97.471 Y93.043 E0.31239
G1 X100.861 Y89.356 E0.31235
G1 X104.113 Y85.545 E0.31243
G1 X107.221 Y81.616 E0.31242
G1 X110.181 Y77.574 E0.31243
G1 X112.988 Y73.425 E0.3124
G1 X115.64 Y69.175 E0.31241
G1 X118.13 Y64.829 E0.31236
G1 X120.459 Y60.393 E0.31245
G1 X122.621 Y55.874 E0.31241
G1 X124.612 Y51.277 E0.31241
G1 X126.432 Y46.609 E0.31245
G1 X128.077 Y41.878 E0.31236
G1 X129.545 Y37.089 E0.31237
G1 X130.835 Y32.248 E0.31243
G1 X131.943 Y27.363 E0.31238
G1 X132.869 Y22.439 E0.31246
G1 X133.611 Y17.485 E0.31239
G1 X134.169 Y12.506 E0.31245
G1 X134.541 Y7.511 E0.31236
G1 X134.727 Y2.509 E0.31215
G1 X134.75 Y0.00 E0.15647
G1 X134.727 Y-2.509 E0.15647
G1 X134.541 Y-7.511 E0.31215
G1 X134.169 Y-12.506 E0.31236
G1 X133.611 Y-17.485 E0.31245
G1 X132.869 Y-22.439 E0.31239
G1 X131.943 Y-27.363 E0.31246
G1 X130.835 Y-32.248 E0.31238
G1 X129.545 Y-37.089 E0.31243
G1 X128.077 Y-41.878 E0.31237
G1 X126.432 Y-46.609 E0.31236
G1 X124.612 Y-51.277 E0.31245
G1 X122.621 Y-55.874 E0.31241
G1 X120.459 Y-60.393 E0.31241
G1 X118.13 Y-64.829 E0.31245
G1 X115.64 Y-69.175 E0.31236
G1 X112.988 Y-73.425 E0.31241
G1 X110.181 Y-77.574 E0.3124
G1 X107.221 Y-81.616 E0.31243
G1 X104.113 Y-85.545 E0.31242
G1 X100.861 Y-89.356 E0.31243
G1 X97.471 Y-93.043 E0.31235
G1 X93.945 Y-96.601 E0.31239
G1 X90.29 Y-100.027 E0.31241
G1 X86.509 Y-103.314 E0.31244
G1 X82.609 Y-106.459 E0.31244
G1 X78.595 Y-109.455 E0.31236
G1 X74.472 Y-112.301 E0.31243
G1 X70.246 Y-114.991 E0.31241
G1 X65.924 Y-117.523 E0.31238
G1 X61.509 Y-119.892 E0.31246
G1 X57.012 Y-122.096 E0.31232
G1 X52.433 Y-124.13 E0.31246
G1 X47.783 Y-125.994 E0.31242
G1 X43.067 Y-127.683 E0.3124
G1 X38.291 Y-129.195 E0.31241
G1 X33.462 Y-130.529 E0.31243
G1 X28.587 Y-131.683 E0.31242
G1 X23.673 Y-132.654 E0.31238
G1 X18.727 Y-133.443 E0.31235
G1 X13.753 Y-134.046 E0.31246
G1 X8.761 Y-134.465 E0.31241
G1 X3.757 Y-134.698 E0.3124
G1 X-1.252 Y-134.744 E0.31239
G1 X-6.26 Y-134.605 E0.31243
G1 X-11.259 Y-134.278 E0.31242
G1 X-16.242 Y-133.767 E0.31238
G1 X-21.203 Y-133.072 E0.3124
G1 X-26.134 Y-132.192 E0.31237
G1 X-31.031 Y-131.129 E0.3125
G1 X-35.883 Y-129.885 E0.31237
G1 X-40.687 Y-128.461 E0.31248
G1 X-45.433 Y-126.86 E0.31236
G1 X-50.117 Y-125.083 E0.31242
G1 X-54.732 Y-123.134 E0.31242
G1 X-59.271 Y-121.015 E0.31239
G1 X-63.728 Y-118.728 E0.31241
G1 X-68.097 Y-116.278 E0.31238
G1 X-72.372 Y-113.666 E0.31243
G1 X-76.547 Y-110.898 E0.31239
G1 X-80.616 Y-107.975 E0.31244
G1 X-84.574 Y-104.904 E0.31242
G1 X-88.414 Y-101.688 E0.31236
G1 X-92.133 Y-98.331 E0.31244
G1 X-95.725 Y-94.839 E0.31242
G1 X-99.183 Y-91.214 E0.31243
G1 X-102.505 Y-87.466 E0.31233
G1 X-105.685 Y-83.595 E0.31242
G1 X-108.72 Y-79.609 E0.31243
G1 X-111.604 Y-75.512 E0.31245
G1 X-114.333 Y-71.312 E0.31236
G1 X-116.905 Y-67.013 E0.31242
G1 X-119.315 Y-62.621 E0.31242
G1 X-121.561 Y-58.144 E0.31236
G0 F8000 X-121.11 Y-57.928
;TYPE:WALL-OUTER
G1 F1800 X-123.178 Y-53.385 E0.31129
G1 X-125.078 Y-48.771 E0.31118
G1 X-126.804 Y-44.087 E0.31131
G1 X-128.355 Y-39.343 E0.31126
G1 X-129.73 Y-34.545 E0.31126
G1 X-130.924 Y-29.699 E0.31125
G1 X-131.937 Y-24.812 E0.31125
G1 X-132.768 Y-19.891 E0.31123
G1 X-133.415 Y-14.943 E0.3112
G1 X-133.879 Y-9.974 E0.31123
G1 X-134.157 Y-4.99 E0.3113
G1 X-134.25 Y0.00 E0.31124
G1 X-134.157 Y4.99 E0.31124
G1 X-133.879 Y9.974 E0.3113
G1 X-133.415 Y14.943 E0.31123
G1 X-132.768 Y19.891 E0.3112
G1 X-131.937 Y24.812 E0.31123
G1 X-130.924 Y29.699 E0.31125
G1 X-129.73 Y34.545 E0.31125
G1 X-128.355 Y39.343 E0.31126
G1 X-126.804 Y44.087 E0.31126
G1 X-125.078 Y48.771 E0.31131
G1 X-123.178 Y53.385 E0.31118
G1 X-121.11 Y57.928 E0.31129
G1 X-118.872 Y62.389 E0.31125
G1 X-116.471 Y66.764 E0.31122
G1 X-113.909 Y71.047 E0.31124
G1 X-111.19 Y75.232 E0.31123
G1 X-108.317 Y79.314 E0.31129
G1 X-105.293 Y83.285 E0.31127
G1 X-102.125 Y87.141 E0.31122
G1 X-98.815 Y90.876 E0.31123
G1 X-95.37 Y94.487 E0.31124
G1 X-91.791 Y97.966 E0.31127
G1 X-88.086 Y101.311 E0.31129
G1 X-84.26 Y104.515 E0.31121
G1 X-80.317 Y107.574 E0.31122
G1 X-76.263 Y110.486 E0.31128
G1 X-72.103 Y113.244 E0.31127
G1 X-67.844 Y115.846 E0.31125
G1 X-63.491 Y118.287 E0.31123
G1 X-59.051 Y120.566 E0.31124
G1 X-54.529 Y122.677 E0.31122
G1 X-49.931 Y124.619 E0.31127
G1 X-45.264 Y126.389 E0.31128
G1 X-40.536 Y127.984 E0.31118
G1 X-35.75 Y129.403 E0.31131
G1 X-30.916 Y130.642 E0.31121
G1 X-26.037 Y131.701 E0.31135
G1 X-21.124 Y132.578 E0.31123
G1 X-16.182 Y133.271 E0.31121
G1 X-11.217 Y133.78 E0.31125
G1 X-6.237 Y134.105 E0.31123
G1 X-1.247 Y134.244 E0.31131
G1 X3.743 Y134.198 E0.3112
G1 X8.728 Y133.966 E0.31121
G1 X13.702 Y133.549 E0.31128
G1 X18.657 Y132.948 E0.31127
G1 X23.585 Y132.162 E0.31121
G1 X28.481 Y131.194 E0.31124
G1 X33.338 Y130.045 E0.31126
G1 X38.149 Y128.716 E0.31126
G1 X42.907 Y127.209 E0.31125
G1 X47.606 Y125.526 E0.31127
G1 X52.238 Y123.669 E0.31121
G1 X56.8 Y121.643 E0.31129
G1 X61.281 Y119.447 E0.3112
G1 X65.679 Y117.087 E0.31126
G1 X69.985 Y114.564 E0.31123
G1 X74.196 Y111.884 E0.31128
G1 X78.303 Y109.049 E0.31122
G1 X82.302 Y106.064 E0.3112
G1 X86.188 Y102.931 E0.31129
G1 X89.955 Y99.656 E0.31129
G1 X93.596 Y96.243 E0.31122
G1 X97.109 Y92.698 E0.31124
G1 X100.487 Y89.024 E0.31125
G1 X103.727 Y85.228 E0.31123
G1 X106.823 Y81.313 E0.31127
G1 X109.772 Y77.286 E0.31127
G1 X112.569 Y73.152 E0.31127
G1 X115.211 Y68.918 E0.31123
G1 X117.692 Y64.588 E0.31122
G1 X120.012 Y60.169 E0.31125
G1 X122.166 Y55.667 E0.31124
G1 X124.15 Y51.087 E0.31127
G1 X125.963 Y46.436 E0.31131
G1 X127.602 Y41.723 E0.31118
G1 X129.064 Y36.951 E0.31125
G1 X130.349 Y32.128 E0.31127
G1 X131.453 Y27.261 E0.31123
G1 X132.376 Y22.356 E0.31126
G1 X133.115 Y17.42 E0.31125
G1 X133.671 Y12.46 E0.31126
G1 X134.042 Y7.483 E0.31124
G1 X134.227 Y2.497 E0.31115
G1 X134.25 Y0.00 E0.15573
G1 X134.227 Y-2.497 E0.15573
G1 X134.042 Y-7.483 E0.31115
G1 X133.671 Y-12.46 E0.31124
G1 X133.115 Y-17.42 E0.31126
G1 X132.376 Y-22.356 E0.31125
G1 X131.453 Y-27.261 E0.31126
G1 X130.349 Y-32.128 E0.31123
G1 X129.064 Y-36.951 E0.31127
G1 X127.602 Y-41.723 E0.31125
G1 X125.963 Y-46.436 E0.31118
G1 X124.15 Y-51.087 E0.31131
G1 X122.166 Y-55.667 E0.31127
G1 X120.012 Y-60.169 E0.31124
G1 X117.692 Y-64.588 E0.31125
G1 X115.211 Y-68.918 E0.31122
G1 X112.569 Y-73.152 E0.31123
G1 X109.772 Y-77.286 E0.31127
G1 X106.823 Y-81.313 E0.31127
G1 X103.727 Y-85.228 E0.31127
G1 X100.487 Y-89.024 E0.31123
G1 X97.109 Y-92.698 E0.31125
G1 X93.596 Y-96.243 E0.31124
G1 X89.955 Y-99.656 E0.31122
G1 X86.188 Y-102.931 E0.31129
G1 X82.302 Y-106.064 E0.31129
G1 X78.303 Y-109.049 E0.3112
G1 X74.196 Y-111.884 E0.31122
G1 X69.985 Y-114.564 E0.31128
G1 X65.679 Y-117.087 E0.31123
G1 X61.281 Y-119.447 E0.31126
G1 X56.8 Y-121.643 E0.3112
G1 X52.238 Y-123.669 E0.31129
G1 X47.606 Y-125.526 E0.31121
G1 X42.907 Y-127.209 E0.31127
G1 X38.149 Y-128.716 E0.31125
G1 X33.338 Y-130.045 E0.31126
G1 X28.481 Y-131.194 E0.31126
G1 X23.585 Y-132.162 E0.31124
G1 X18.657 Y-132.948 E0.31121
G1 X13.702 Y-133.549 E0.31127
G1 X8.728 Y-133.966 E0.31128
G1 X3.743 Y-134.198 E0.31121
G1 X-1.247 Y-134.244 E0.3112
G1 X-6.237 Y-134.105 E0.31131
G1 X-11.217 Y-133.78 E0.31123
G1 X-16.182 Y-133.271 E0.31125
G1 X-21.124 Y-132.578 E0.31121
G1 X-26.037 Y-131.701 E0.31123
G1 X-30.916 Y-130.642 E0.31135
G1 X-35.75 Y-129.403 E0.31121
G1 X-40.536 Y-127.984 E0.31131
G1 X-45.264 Y-126.389 E0.31118
G1 X-49.931 Y-124.619 E0.31128
G1 X-54.529 Y-122.677 E0.31127
G1 X-59.051 Y-120.566 E0.31122
G1 X-63.491 Y-118.287 E0.31124
G1 X-67.844 Y-115.846 E0.31123
G1 X-72.103 Y-113.244 E0.31125
G1 X-76.263 Y-110.486 E0.31127
G1 X-80.317 Y-107.574 E0.31128
G1 X-84.26 Y-104.515 E0.31122
G1 X-88.086 Y-101.311 E0.31121
G1 X-91.791 Y-97.966 E0.31129
G1 X-95.37 Y-94.487 E0.31127
G1 X-98.815 Y-90.876 E0.31124
G1 X-102.125 Y-87.141 E0.31123
G1 X-105.293 Y-83.285 E0.31122
G1 X-108.317 Y-79.314 E0.31127
G1 X-111.19 Y-75.232 E0.31129
G1 X-113.909 Y-71.047 E0.31123
G1 X-116.471 Y-66.764 E0.31124
G1 X-118.872 Y-62.389 E0.31122
G1 X-121.11 Y-57.928 E0.31125
G0 F8000 X-121.213 Y-57.701
G0 X-121.713 Y-57.929
