;FLAVOR:RepRap
;TIME:402
;Filament used: 0.692486m
;Layer height: 0.25
;MINX:-139.75
;MINY:-139.744
;MINZ:0.3
;MAXX:139.75
;MAXY:139.744
;MAXZ:1.3
;Generated with Cura_SteamEngine 4.6.2
T0
M190 S60
M104 S205
M109 S205
M82 ;absolute extrusion mode
M203 Z14000
G28 ;Home
G1 X0 Y-130 Z0.3 F8000 ;Move the platform down 15mm
G1 Z5
G1 F200 E3
G92 E0
M82 ;absolute extrusion mode
G91
G1 Z1 F10000
G90
G1 X0 Y-130 F14000
T0 P0
G92 E0
G1 E145 F5000
G92 E0
G1 E15 F1000
G92 E0
M18 E1
M83 ;relative extrusion mode
M83 ;relative extrusion mode
G1 F3600 E-6
;LAYER_COUNT:1
;LAYER:0
M107
G1 F3600 Z1.3
;MESH:Calibration Ring Spokes.STL
G0 F8000 X119.872 Y-68.868 Z1.3
;TYPE:WALL-INNER
G1 F3600 Z0.3
G1 F3600 E6
G1 F1800 X84.101 Y-68.868 E2.23078
G1 X82.869 Y-68.787 E0.077
G1 X81.617 Y-68.538 E0.07961
G1 X80.409 Y-68.128 E0.07956
G1 X79.267 Y-67.564 E0.07943
G1 X79.021 Y-67.4 E0.01844
G1 X78.538 Y-67.078 E0.0362
G1 X78.204 Y-66.856 E0.02501
G1 X77.246 Y-66.013 E0.07958
G1 X76.404 Y-65.055 E0.07954
G1 X75.718 Y-64.028 E0.07702
G1 X55.303 Y-28.667 E2.54634
G1 X55.235 Y-28.564 E0.0077
G1 X54.598 Y-27.6 E0.07206
G1 X54.422 Y-27.391 E0.01704
G1 X54.155 Y-27.074 E0.02585
G1 X53.826 Y-26.685 E0.03177
G1 X53.624 Y-26.497 E0.01721
G1 X53.421 Y-26.308 E0.0173
G1 X53.169 Y-26.074 E0.02145
G1 X52.927 Y-25.849 E0.02061
G1 X52.609 Y-25.616 E0.02458
G1 X52.28 Y-25.376 E0.0254
G1 X51.937 Y-25.126 E0.02647
G1 X51.018 Y-24.61 E0.06573
G1 X50.888 Y-24.537 E0.0093
G1 X49.75 Y-24.066 E0.07681
G1 X49.603 Y-24.025 E0.00952
G1 X48.583 Y-23.738 E0.06608
G1 X48.17 Y-23.674 E0.02606
G1 X47.759 Y-23.61 E0.02594
G1 X47.382 Y-23.55 E0.02381
G1 X47.046 Y-23.538 E0.02097
G1 X46.701 Y-23.526 E0.02153
G1 X46.414 Y-23.516 E0.01791
G1 X46.147 Y-23.506 E0.01666
G1 X45.639 Y-23.549 E0.03179
G1 X45.23 Y-23.582 E0.02559
G1 X44.951 Y-23.606 E0.01746
G1 X43.823 Y-23.836 E0.07179
G1 X43.7 Y-23.862 E0.00784
G1 X18.603 Y-30.59 E1.62038
G1 X18.509 Y-30.615 E0.00607
G1 X17.187 Y-30.869 E0.08395
G1 X15.797 Y-30.935 E0.08678
G1 X15.377 Y-30.895 E0.02631
G1 X14.766 Y-30.835 E0.03829
G1 X14.411 Y-30.801 E0.02224
G1 X14.114 Y-30.73 E0.01904
G1 X13.492 Y-30.58 E0.0399
G1 X13.06 Y-30.476 E0.02771
G1 X11.767 Y-29.957 E0.08689
G1 X10.563 Y-29.261 E0.08673
G1 X9.468 Y-28.401 E0.08683
G1 X9.15 Y-28.068 E0.02871
G1 X8.715 Y-27.611 E0.03935
G1 X8.508 Y-27.394 E0.0187
G1 X8.302 Y-27.105 E0.02213
G1 X7.934 Y-26.589 E0.03952
G1 X7.701 Y-26.261 E0.02509
G1 X7.063 Y-25.023 E0.08685
G1 X6.624 Y-23.751 E0.08392
G1 X6.61 Y-23.698 E0.00342
G1 X0.726 Y-1.748 E1.41719
G1 X1.748 Y-.726 E0.09013
G1 X23.658 Y-6.598 E1.41459
G1 X23.782 Y-6.623 E0.00789
G1 X24.93 Y-6.858 E0.07308
G1 X25.162 Y-6.876 E0.01451
G1 X26.139 Y-6.956 E0.06113
G1 X26.612 Y-6.937 E0.02952
G1 X27.032 Y-6.92 E0.02621
G1 X27.39 Y-6.905 E0.02235
G1 X27.684 Y-6.857 E0.01858
G1 X28.053 Y-6.798 E0.0233
G1 X28.357 Y-6.749 E0.0192
G1 X28.626 Y-6.705 E0.017
G1 X29.062 Y-6.578 E0.02832
G1 X29.465 Y-6.461 E0.02617
G1 X29.795 Y-6.365 E0.02143
G1 X30.813 Y-5.932 E0.06899
G1 X30.942 Y-5.877 E0.00875
G1 X32.008 Y-5.261 E0.07678
G1 X32.119 Y-5.177 E0.00868
G1 X33.002 Y-4.515 E0.06882
G1 X33.253 Y-4.274 E0.0217
G1 X33.561 Y-3.978 E0.02664
G1 X33.894 Y-3.658 E0.0288
G1 X34.069 Y-3.444 E0.01724
G1 X34.249 Y-3.223 E0.01778
G1 X34.461 Y-2.963 E0.02092
G1 X34.671 Y-2.707 E0.02065
G1 X34.875 Y-2.384 E0.02382
G1 X35.091 Y-2.042 E0.02523
G1 X35.337 Y-1.654 E0.02865
G1 X35.762 Y-.758 E0.06184
G1 X35.867 Y-.537 E0.01526
G1 X36.235 Y0.566 E0.07251
G1 X36.274 Y0.682 E0.00763
G1 X43.025 Y25.878 E1.62672
G1 X43.476 Y27.174 E0.08558
G1 X44.129 Y28.43 E0.08828
G1 X44.331 Y28.709 E0.02148
G1 X44.728 Y29.259 E0.0423
G1 X44.959 Y29.579 E0.02461
G1 X45.947 Y30.596 E0.08842
G1 X47.071 Y31.459 E0.08837
G1 X48.308 Y32.149 E0.08833
G1 X48.67 Y32.287 E0.02416
G1 X49.308 Y32.53 E0.04258
G1 X49.633 Y32.653 E0.02167
G1 X49.918 Y32.716 E0.0182
G1 X50.591 Y32.866 E0.043
G1 X51.017 Y32.96 E0.02721
G1 X52.386 Y33.06 E0.0856
G1 X93.229 Y33.06 E2.54708
G1 X93.337 Y33.066 E0.00675
G1 X94.468 Y33.132 E0.07065
G1 X94.626 Y33.159 E0.01
G1 X95.621 Y33.336 E0.06303
G1 X95.93 Y33.428 E0.02011
G1 X96.776 Y33.681 E0.05507
G1 X97.19 Y33.86 E0.02813
G1 X97.566 Y34.022 E0.02553
G1 X97.864 Y34.151 E0.02025
G1 X98.091 Y34.282 E0.01634
G1 X98.381 Y34.45 E0.0209
G1 X98.679 Y34.622 E0.02146
G1 X98.903 Y34.751 E0.01612
G1 X99.141 Y34.928 E0.0185
G1 X99.49 Y35.188 E0.02714
G1 X99.85 Y35.456 E0.02799
G1 X100.495 Y36.063 E0.05524
G1 X100.726 Y36.281 E0.01981
G1 X101.379 Y37.06 E0.06339
G1 X101.485 Y37.187 E0.01032
G1 X102.104 Y38.128 E0.07024
G1 X102.165 Y38.221 E0.00694
G1 X119.142 Y67.625 E2.11741
G1 X120.615 Y67.595 E0.09188
G1 X121.437 Y66.045 E0.10941
G1 X122.655 Y63.747 E0.1622
G1 X123.312 Y62.508 E0.08746
G1 X123.746 Y61.611 E0.06214
G1 X124.881 Y59.269 E0.1623
G1 X125.511 Y57.968 E0.09015
G1 X125.922 Y57.032 E0.06375
G1 X126.951 Y54.693 E0.15936
G1 X127.542 Y53.349 E0.09156
G1 X127.917 Y52.403 E0.06346
G1 X128.853 Y50.046 E0.15816
G1 X129.403 Y48.66 E0.09299
G1 X129.745 Y47.695 E0.06385
G1 X130.584 Y45.337 E0.15608
G1 X131.092 Y43.907 E0.09464
G1 X131.4 Y42.93 E0.06388
G1 X132.143 Y40.572 E0.15418
G1 X132.608 Y39.094 E0.09663
G1 X132.872 Y38.132 E0.06221
G1 X133.544 Y35.694 E0.15771
G1 X133.946 Y34.231 E0.09462
G1 X134.176 Y33.257 E0.06241
G1 X134.399 Y32.315 E0.06037
G1 X135.106 Y29.32 E0.19191
G1 X135.289 Y28.391 E0.05905
G1 X135.476 Y27.451 E0.05977
G1 X136.085 Y24.371 E0.1958
G1 X136.24 Y23.4 E0.06132
G1 X136.388 Y22.478 E0.05823
G1 X136.884 Y19.389 E0.19511
G1 X137.004 Y18.408 E0.06163
G1 X137.113 Y17.529 E0.05524
G1 X137.498 Y14.392 E0.1971
G1 X137.5 Y14.382 E0.00064
G1 X137.58 Y13.453 E0.05815
G1 X137.658 Y12.557 E0.05609
G1 X137.933 Y9.356 E0.20036
G1 X137.978 Y8.437 E0.05738
G1 X138.024 Y7.523 E0.05707
G1 X138.183 Y4.318 E0.20012
G1 X138.194 Y3.404 E0.057
G1 X138.246 Y-.551 E0.24667
G1 X138.248 Y-.728 E0.01104
G1 X138.242 Y-1.006 E0.01734
G1 X138.206 Y-2.511 E0.09388
G1 X138.131 Y-5.771 E0.20336
G1 X138.074 Y-6.724 E0.05954
G1 X138.024 Y-7.541 E0.05105
G1 X137.828 Y-10.807 E0.20404
G1 X137.737 Y-11.745 E0.05877
G1 X137.66 Y-12.539 E0.04975
G1 X137.341 Y-15.828 E0.20607
G1 X137.228 Y-16.676 E0.05335
G1 X137.117 Y-17.502 E0.05197
G1 X136.671 Y-20.829 E0.20934
G1 X136.533 Y-21.64 E0.0513
G1 X136.386 Y-22.496 E0.05416
G1 X135.821 Y-25.801 E0.2091
G1 X135.645 Y-26.644 E0.05371
G1 X135.478 Y-27.443 E0.0509
G1 X134.79 Y-30.74 E0.21004
G1 X134.592 Y-31.542 E0.05152
G1 X134.402 Y-32.307 E0.04916
G1 X133.578 Y-35.637 E0.21393
G1 X133.348 Y-36.44 E0.05209
G1 X133.132 Y-37.193 E0.04885
G1 X132.188 Y-40.486 E0.21363
G1 X131.95 Y-41.217 E0.04794
G1 X131.702 Y-41.976 E0.0498
G1 X130.624 Y-45.284 E0.21697
G1 X130.329 Y-46.087 E0.05335
G1 X130.079 Y-46.767 E0.04518
G1 X128.884 Y-50.019 E0.21606
G1 X128.602 Y-50.709 E0.04649
G1 X128.309 Y-51.423 E0.04813
G1 X126.973 Y-54.689 E0.22006
G1 X126.65 Y-55.403 E0.04887
G1 X126.346 Y-56.074 E0.04594
G1 X124.894 Y-59.284 E0.21971
G1 X124.57 Y-59.936 E0.0454
G1 X124.223 Y-60.633 E0.04856
G1 X122.648 Y-63.802 E0.22069
G1 X122.278 Y-64.484 E0.04839
G1 X121.957 Y-65.073 E0.04183
G1 X119.894 Y-68.868 E0.26938
G1 X119.872 Y-68.868 E0.00137
G0 F8000 X119.597 Y-68.368
G1 F1800 X84.117 Y-68.368 E2.21263
G1 X82.934 Y-68.29 E0.07394
G1 X81.747 Y-68.054 E0.07547
G1 X80.601 Y-67.665 E0.07547
G1 X79.517 Y-67.13 E0.07539
G1 X78.509 Y-66.458 E0.07555
G1 X77.6 Y-65.659 E0.07547
G1 X76.801 Y-64.75 E0.07547
G1 X76.143 Y-63.764 E0.07392
G1 X55.728 Y-28.403 E2.54634
G1 X55.001 Y-27.303 E0.08223
G1 X54.185 Y-26.336 E0.07891
G1 X53.246 Y-25.462 E0.08
G1 X52.21 Y-24.706 E0.07998
G1 X51.104 Y-24.086 E0.07907
G1 X49.917 Y-23.594 E0.08013
G1 X49.886 Y-23.586 E0.002
G1 X48.687 Y-23.248 E0.07769
G1 X47.427 Y-23.051 E0.07953
G1 X46.14 Y-23.005 E0.08031
G1 X44.877 Y-23.111 E0.07904
G1 X43.588 Y-23.375 E0.08205
G1 X18.397 Y-30.127 E1.62643
G1 X17.128 Y-30.371 E0.08059
G1 X15.809 Y-30.434 E0.08235
G1 X14.494 Y-30.307 E0.08239
G1 X13.212 Y-29.998 E0.08224
G1 X11.986 Y-29.506 E0.08238
G1 X10.844 Y-28.846 E0.08226
G1 X9.805 Y-28.03 E0.08239
G1 X8.895 Y-27.075 E0.08227
G1 X8.129 Y-26 E0.08232
G1 X7.524 Y-24.826 E0.08236
G1 X7.102 Y-23.604 E0.08062
G1 X1.284 Y-1.897 E1.40149
G1 X1.897 Y-1.284 E0.05406
G1 X23.546 Y-7.086 E1.39774
G1 X24.856 Y-7.353 E0.08337
G1 X24.889 Y-7.355 E0.00206
G1 X26.098 Y-7.453 E0.07564
G1 X26.135 Y-7.457 E0.00232
G1 X27.441 Y-7.404 E0.08151
G1 X28.73 Y-7.195 E0.08144
G1 X29.966 Y-6.836 E0.08027
G1 X31.166 Y-6.325 E0.08134
G1 X32.284 Y-5.679 E0.08052
G1 X33.327 Y-4.897 E0.0813
G1 X34.26 Y-4 E0.08071
G1 X35.08 Y-2.996 E0.08084
G1 X35.775 Y-1.897 E0.08109
G1 X36.331 Y-.725 E0.0809
G1 X36.753 Y0.537 E0.08299
G1 X43.503 Y25.731 E1.62658
G1 X43.936 Y26.975 E0.08214
G1 X44.556 Y28.167 E0.08379
G1 X45.343 Y29.257 E0.08384
G1 X46.28 Y30.222 E0.08388
G1 X47.346 Y31.04 E0.0838
G1 X48.52 Y31.695 E0.08384
G1 X49.777 Y32.173 E0.08387
G1 X51.09 Y32.464 E0.08387
G1 X52.404 Y32.56 E0.08216
G1 X93.241 Y32.56 E2.54671
G1 X94.524 Y32.635 E0.08015
G1 X95.738 Y32.849 E0.07688
G1 X96.947 Y33.21 E0.07869
G1 X98.09 Y33.704 E0.07765
G1 X99.175 Y34.331 E0.07815
G1 X100.175 Y35.075 E0.07773
G1 X101.088 Y35.935 E0.07822
G1 X101.108 Y35.96 E0.002
G1 X101.89 Y36.892 E0.07587
G1 X102.588 Y37.953 E0.0792
G1 X119.427 Y67.119 E2.10025
G1 X120.311 Y67.101 E0.05514
G1 X122.866 Y62.282 E0.34015
G1 X125.057 Y57.758 E0.31347
G1 X127.081 Y53.156 E0.31352
G1 X128.935 Y48.484 E0.31346
G1 X130.618 Y43.748 E0.31344
G1 X132.128 Y38.953 E0.31351
G1 X133.461 Y34.107 E0.31343
G1 X134.617 Y29.214 E0.31354
G1 X135.593 Y24.283 E0.31348
G1 X136.389 Y19.319 E0.31352
G1 X137.003 Y14.33 E0.31348
G1 X137.434 Y9.322 E0.31347
G1 X137.683 Y4.302 E0.31345
G1 X137.748 Y-.725 E0.31352
G1 X137.631 Y-5.75 E0.31346
G1 X137.329 Y-10.768 E0.3135
G1 X136.844 Y-15.771 E0.31346
G1 X136.177 Y-20.754 E0.31353
G1 X135.33 Y-25.708 E0.31343
G1 X134.302 Y-30.629 E0.31351
G1 X133.095 Y-35.508 E0.31344
G1 X131.71 Y-40.34 E0.31347
G1 X130.151 Y-45.12 E0.31355
G1 X128.418 Y-49.838 E0.31345
G1 X126.514 Y-54.491 E0.31353
G1 X124.442 Y-59.07 E0.31343
G1 X122.204 Y-63.571 E0.31348
G1 X119.597 Y-68.368 E0.34048
G0 F8000 X119.3 Y-67.868
;TYPE:WALL-OUTER
G1 F1800 X84.134 Y-67.868 E2.19305
G1 X82.999 Y-67.793 E0.07094
G1 X81.877 Y-67.57 E0.07134
G1 X80.793 Y-67.202 E0.07139
G1 X79.767 Y-66.696 E0.07134
G1 X78.814 Y-66.06 E0.07145
G1 X77.954 Y-65.305 E0.07137
G1 X77.199 Y-64.445 E0.07137
G1 X76.568 Y-63.5 E0.07086
G1 X56.153 Y-28.139 E2.54634
G1 X55.404 Y-27.006 E0.0847
G1 X54.544 Y-25.987 E0.08315
G1 X53.565 Y-25.076 E0.0834
G1 X52.485 Y-24.287 E0.08341
G1 X51.32 Y-23.634 E0.08329
G1 X50.084 Y-23.122 E0.08343
G1 X48.791 Y-22.758 E0.08377
G1 X47.472 Y-22.552 E0.08325
G1 X46.133 Y-22.504 E0.08356
G1 X44.803 Y-22.616 E0.08324
G1 X43.476 Y-22.888 E0.08448
G1 X18.285 Y-29.639 E1.62642
G1 X17.068 Y-29.873 E0.07729
G1 X15.821 Y-29.933 E0.07786
G1 X14.577 Y-29.813 E0.07794
G1 X13.365 Y-29.52 E0.07776
G1 X12.205 Y-29.055 E0.07794
G1 X11.125 Y-28.431 E0.07779
G1 X10.142 Y-27.659 E0.07795
G1 X9.282 Y-26.756 E0.07777
G1 X8.557 Y-25.739 E0.07789
G1 X7.985 Y-24.629 E0.07787
G1 X7.58 Y-23.457 E0.07733
G1 X1.889 Y-2.222 E1.37101
G1 X1.842 Y-2.046 E0.01136
G1 X2.046 Y-1.842 E0.01799
G1 X2.222 Y-1.889 E0.01136
G1 X23.434 Y-7.574 E1.36952
G1 X24.782 Y-7.848 E0.08578
G1 X26.131 Y-7.958 E0.08441
G1 X27.492 Y-7.903 E0.08494
G1 X28.834 Y-7.685 E0.08479
G1 X30.137 Y-7.307 E0.08461
G1 X31.39 Y-6.773 E0.08494
G1 X32.56 Y-6.097 E0.08427
G1 X33.652 Y-5.278 E0.08513
G1 X34.626 Y-4.342 E0.08424
G1 X35.489 Y-3.285 E0.0851
G1 X36.214 Y-2.139 E0.08457
G1 X36.797 Y-.909 E0.08489
G1 X37.232 Y0.392 E0.08555
G1 X43.981 Y25.584 E1.62644
G1 X44.396 Y26.776 E0.07871
G1 X44.983 Y27.904 E0.0793
G1 X45.727 Y28.935 E0.07929
G1 X46.613 Y29.847 E0.07929
G1 X47.622 Y30.621 E0.07931
G1 X48.732 Y31.241 E0.07929
G1 X49.921 Y31.693 E0.07933
G1 X51.163 Y31.968 E0.07933
G1 X52.422 Y32.06 E0.07872
G1 X93.253 Y32.06 E2.54633
G1 X94.58 Y32.138 E0.0829
G1 X95.855 Y32.362 E0.08073
G1 X97.118 Y32.739 E0.0822
G1 X98.316 Y33.257 E0.0814
G1 X99.452 Y33.913 E0.08181
G1 X100.497 Y34.691 E0.08125
G1 X101.45 Y35.589 E0.08166
G1 X102.295 Y36.597 E0.08203
G1 X103.011 Y37.685 E0.08122
G1 X119.62 Y66.453 E2.07159
G1 X119.712 Y66.613 E0.01151
G1 X120.007 Y66.607 E0.0184
G1 X120.093 Y66.444 E0.01149
G1 X122.42 Y62.056 E0.30975
G1 X124.603 Y57.548 E0.31236
G1 X126.62 Y52.963 E0.31238
G1 X128.467 Y48.308 E0.31231
G1 X130.144 Y43.589 E0.31232
G1 X131.648 Y38.812 E0.31232
G1 X132.976 Y33.983 E0.31233
G1 X134.128 Y29.108 E0.31239
G1 X135.101 Y24.195 E0.31234
G1 X135.894 Y19.249 E0.31239
G1 X136.506 Y14.278 E0.31235
G1 X136.935 Y9.288 E0.31234
G1 X137.183 Y4.286 E0.31232
G1 X137.248 Y-.722 E0.31234
G1 X137.131 Y-5.729 E0.31234
G1 X136.83 Y-10.729 E0.31238
G1 X136.347 Y-15.714 E0.31233
G1 X135.683 Y-20.679 E0.31239
G1 X134.839 Y-25.615 E0.31229
G1 X133.814 Y-30.518 E0.31237
G1 X132.612 Y-35.379 E0.31228
G1 X131.232 Y-40.194 E0.31237
G1 X129.678 Y-44.956 E0.31238
G1 X127.952 Y-49.657 E0.3123
G1 X126.055 Y-54.293 E0.31238
G1 X123.99 Y-58.856 E0.31234
G1 X121.76 Y-63.34 E0.31231
G1 X119.3 Y-67.868 E0.32136
G0 F8000 X119.05 Y-67.868
G0 X119.05 Y-68.418
G1 F3600 E-6
G1 F3600 Z1.3
G0 F8000 X-119.894 Y68.868 Z1.3
;TYPE:WALL-INNER
G1 F3600 Z0.3
G1 F3600 E6
G1 F1800 X-84.101 Y68.868 E2.23215
G1 X-82.869 Y68.787 E0.077
G1 X-81.617 Y68.538 E0.07961
G1 X-80.409 Y68.128 E0.07956
G1 X-79.267 Y67.564 E0.07943
G1 X-79.021 Y67.4 E0.01844
G1 X-78.538 Y67.078 E0.0362
G1 X-78.204 Y66.856 E0.02501
G1 X-77.246 Y66.013 E0.07958
G1 X-76.404 Y65.055 E0.07954
G1 X-75.718 Y64.028 E0.07702
G1 X-55.303 Y28.667 E2.54634
G1 X-55.235 Y28.564 E0.0077
G1 X-54.598 Y27.6 E0.07206
G1 X-54.422 Y27.391 E0.01704
G1 X-54.155 Y27.074 E0.02585
G1 X-53.826 Y26.685 E0.03177
G1 X-53.624 Y26.497 E0.01721
G1 X-53.421 Y26.308 E0.0173
G1 X-53.169 Y26.074 E0.02145
G1 X-52.927 Y25.849 E0.02061
G1 X-52.627 Y25.63 E0.02316
G1 X-52.279 Y25.377 E0.02683
G1 X-51.935 Y25.125 E0.02659
G1 X-51.018 Y24.61 E0.06559
G1 X-50.888 Y24.537 E0.0093
G1 X-49.75 Y24.066 E0.07681
G1 X-49.603 Y24.025 E0.00952
G1 X-48.583 Y23.738 E0.06608
G1 X-48.17 Y23.674 E0.02606
G1 X-47.759 Y23.61 E0.02594
G1 X-47.382 Y23.55 E0.02381
G1 X-47.046 Y23.538 E0.02097
G1 X-46.701 Y23.526 E0.02153
G1 X-46.414 Y23.516 E0.01791
G1 X-46.147 Y23.506 E0.01666
G1 X-45.644 Y23.548 E0.03148
G1 X-45.23 Y23.582 E0.02591
G1 X-44.951 Y23.606 E0.01746
G1 X-43.823 Y23.836 E0.07179
G1 X-43.7 Y23.862 E0.00784
G1 X-18.603 Y30.59 E1.62038
G1 X-18.509 Y30.615 E0.00607
G1 X-17.187 Y30.869 E0.08395
G1 X-15.797 Y30.935 E0.08678
G1 X-15.375 Y30.895 E0.02644
G1 X-14.77 Y30.836 E0.03791
G1 X-14.411 Y30.801 E0.02249
G1 X-14.114 Y30.73 E0.01904
G1 X-13.492 Y30.58 E0.0399
G1 X-13.06 Y30.476 E0.02771
G1 X-11.767 Y29.957 E0.08689
G1 X-10.563 Y29.261 E0.08673
G1 X-9.468 Y28.401 E0.08683
G1 X-9.15 Y28.068 E0.02871
G1 X-8.715 Y27.611 E0.03935
G1 X-8.508 Y27.394 E0.0187
G1 X-8.302 Y27.105 E0.02213
G1 X-7.934 Y26.589 E0.03952
G1 X-7.701 Y26.261 E0.02509
G1 X-7.063 Y25.023 E0.08685
G1 X-6.624 Y23.751 E0.08392
G1 X-6.61 Y23.698 E0.00342
G1 X-.726 Y1.748 E1.41719
G1 X-1.748 Y0.726 E0.09013
G1 X-23.658 Y6.598 E1.41459
G1 X-23.782 Y6.623 E0.00789
G1 X-24.93 Y6.858 E0.07308
G1 X-25.162 Y6.876 E0.01451
G1 X-26.139 Y6.956 E0.06113
G1 X-26.612 Y6.937 E0.02952
G1 X-27.032 Y6.92 E0.02621
G1 X-27.39 Y6.905 E0.02235
G1 X-27.684 Y6.857 E0.01858
G1 X-28.053 Y6.798 E0.0233
G1 X-28.357 Y6.749 E0.0192
G1 X-28.626 Y6.705 E0.017
G1 X-29.062 Y6.578 E0.02832
G1 X-29.465 Y6.461 E0.02617
G1 X-29.795 Y6.365 E0.02143
G1 X-30.813 Y5.932 E0.06899
G1 X-30.942 Y5.877 E0.00875
G1 X-32.008 Y5.261 E0.07678
G1 X-32.119 Y5.177 E0.00868
G1 X-33.002 Y4.515 E0.06882
G1 X-33.253 Y4.274 E0.0217
G1 X-33.561 Y3.978 E0.02664
G1 X-33.894 Y3.658 E0.0288
G1 X-34.069 Y3.444 E0.01724
G1 X-34.249 Y3.223 E0.01778
G1 X-34.461 Y2.964 E0.02087
G1 X-34.671 Y2.707 E0.0207
G1 X-34.875 Y2.384 E0.02382
G1 X-35.091 Y2.042 E0.02523
G1 X-35.338 Y1.653 E0.02874
G1 X-35.762 Y0.758 E0.06176
G1 X-35.87 Y0.531 E0.01568
G1 X-36.236 Y-.565 E0.07206
G1 X-36.273 Y-.676 E0.0073
G1 X-43.025 Y-25.878 E1.62709
